!!!!SEGMENT: pl-wtm--r-401-m_moniuszko-stanislaw--veni-creator.krn
!!!cenid: 18xx:2716
!!!COM: Moniuszko, Stanisław
!!!COM-rismID: pe30008351
!!!CDT: 1819/05/05-1872/06/04
!!!CNT: Polish
!!!OTL: Veni creator
!!!PDT:
!!!AGN: Sacred
!!!YEC: Copyright 2022 Narodowy Instytut Fryderyka Chopina (https://polishscores.org)
!!!YEM: License CC-BY-4.0 (https://creativecommons.org/licenses/by/4.0)
!!!SMS-siglum: PL-Wtm
!!!SMS-shelfmark: R 401/M
!!!SMS-shelfwork: W
!!!SMS-variant:
!!!SMS-altvar:
!!!NIFC-rismSourceID: 1001093527
!!!NIFC-rismChildID: 1001093527
!!!NIFC-islandoraID:
!!!URL-pdf-islandora:
!!!URL-scan:
!!!IIIF:
!!!ONB-nifc:
!!!AIN: 1 alto 1 empty 1 organ 1 soprn 1 tenor
!!!key:
**kern	**kern	**kern	**text	**dynam	**kern	**text	**dynam	**kern	**text	**dynam	**kern	**text	**dynam
*part5	*part5	*part4	*	*	*part3	*	*	*part2	*	*	*part1	*	*
*staff6	*staff5	*staff4	*	*	*staff3	*	*	*staff2	*	*	*staff1	*	*
*Iorgan	*Iorgan	*Iempty	*	*	*Itenor	*	*	*Ialto	*	*	*Isoprn	*	*
*I"[Organo]	*I"[Organo]	*I"[Basso]	*	*	*I"[Tenore]	*	*	*I"[Alto]	*	*	*I"[Soprano]	*	*
*>[A,A1,A,A2]	*>[A,A1,A,A2]	*>[A,A1,A,A2]	*	*	*>[A,A1,A,A2]	*	*	*>[A,A1,A,A2]	*	*	*>[A,A1,A,A2]	*	*
*>A	*>A	*>A	*	*	*>A	*	*	*>A	*	*	*>A	*	*
*clefF4	*clefG2	*clefF4	*	*	*clefG2	*	*	*clefG2	*	*	*clefG2	*	*
*	*	*	*	*	*ITrd7c12	*	*	*	*	*	*	*	*
*k[]	*k[]	*k[]	*	*	*k[]	*	*	*k[]	*	*	*k[]	*	*
*C:	*C:	*C:	*	*	*C:	*	*	*C:	*	*	*C:	*	*
*M4/4	*M4/4	*M4/4	*	*	*M4/4	*	*	*M4/4	*	*	*M4/4	*	*
*met(c)	*met(c)	*met(c)	*	*	*met(c)	*	*	*met(c)	*	*	*met(c)	*	*
*all\right	*all\right	*all\right	*	*	*all\right	*	*	*all\right	*	*	*all\right	*	*
*2\right	*2\right	*2\right	*	*	*2\right	*	*	*2\right	*	*	*2\right	*	*
=1	=1	=1	=1	=1	=1	=1	=1	=1	=1	=1	=1	=1	=1
!	!	!	!	!	!LO:TX:t=P:problem=tenor zapisany bez przenośnika oktawowego	!	!	!	!	!	!LO:TX:a:t=Moderato.	!	!
!	!	!LO:TX:t=P:problem=cały tekst wpisany ołówkiem	!	!	!LO:TX:t=P:problem=cały tekst wpisany ołówkiem	!	!	!LO:TX:t=P:problem=cały tekst wpisany ołówkiem	!	!	!LO:TX:t=P:problem=cały tekst wpisany ołówkiem	!	!
4G 4E/	1ryy	1r	.	.	1r	.	.	1r	.	.	1r	.	.
8EL 8C/	.	.	.	.	.	.	.	.	.	.	.	.	.
8cJ 8E/	.	.	.	.	.	.	.	.	.	.	.	.	.
4c 4E/	.	.	.	.	.	.	.	.	.	.	.	.	.
8GL 8E/	.	.	.	.	.	.	.	.	.	.	.	.	.
8e>J 8G/	.	.	.	.	.	.	.	.	.	.	.	.	.
=2	=2	=2	=2	=2	=2	=2	=2	=2	=2	=2	=2	=2	=2
4e> 4G/	1ryy	1r	.	.	1r	.	.	1r	.	.	1r	.	.
8c>L 8E/	.	.	.	.	.	.	.	.	.	.	.	.	.
8g>J 8e> 8c>/	.	.	.	.	.	.	.	.	.	.	.	.	.
4g> 4e> 4c>/	.	.	.	.	.	.	.	.	.	.	.	.	.
8e>L 8G>/	.	.	.	.	.	.	.	.	.	.	.	.	.
8g>J 8e>/	.	.	.	.	.	.	.	.	.	.	.	.	.
=3	=3	=3	=3	=3	=3	=3	=3	=3	=3	=3	=3	=3	=3
!LO:TX:t=P:problem=brak dalszego zapisu (cały utwór wygląda na niedokończony)	!LO:TX:t=P:problem=brak dalszego zapisu (cały utwór wygląda na niedokończony)	!	!	!	!	!	!	!	!	!	!	!	!
1ryy	1ryy	4c\	.	f	4c\	.	f	4e/	.	f	4cc\	Ve-	f
!	!	!	!	!	!	!	!	!LO:TX:t=P:dot.color=dodgerblue:problem	!	!	!LO:TX:t=P:dot.color=dodgerblue:problem	!	!
.	.	8B\	.	.	8B\	.	.	8.e/	.	.	8.cc\	-ni	.
.	.	8B\	.	.	8B\	.	.	.	.	.	.	.	.
!	!	!	!	!	!	!	!	!LO:TX:t=P:flag.color=dodgerblue:problem	!	!	!LO:TX:t=P:flag.color=dodgerblue:problem	!	!
.	.	.	.	.	.	.	.	16e/	.	.	16cc\	Crea-	.
.	.	4A\	.	.	4A/	.	.	4e/	.	.	4cc\	-a-	.
.	.	4G\	.	.	4G/	.	.	4e/	.	.	4cc\	-tor	.
=4	=4	=4	=4	=4	=4	=4	=4	=4	=4	=4	=4	=4	=4
1ryy	1ryy	4.G^\	.	.	4.A^/	.	.	4.e^/	.	.	4.cc^\	Spi-	.
.	.	8F#X\	.	.	8A/	.	.	8d#X/	.	.	8cc\	-ri-	.
.	.	[4F#\	.	.	[4A/	.	.	[4d#/	.	.	[4cc\	-tus	.
.	.	8F#\]	.	.	8A/]	.	.	8d#/]	.	.	8cc\]	.	.
.	.	8r	.	.	8r	.	.	8r	.	.	8r	.	.
!!LO:LB:g=original
=5	=5	=5	=5	=5	=5	=5	=5	=5	=5	=5	=5	=5	=5
1ryy	1ryy	4G\	.	.	4c\	.	.	4e/	.	.	4cc\	men-	.
.	.	8c\	.	.	8c\	.	.	8e/	.	.	8g/	-tes	.
.	.	8G\	.	.	8c\	.	.	8e/	.	.	8g/	tu-	.
.	.	4E\	.	.	4c\	.	.	4g/	.	.	4cc\	-o-	.
.	.	4C/	.	.	4c\	.	.	4g/	.	.	4ee\	-rum	.
=6	=6	=6	=6	=6	=6	=6	=6	=6	=6	=6	=6	=6	=6
1ryy	1ryy	4.G\	.	.	4.B\	.	.	4.g/	.	.	4.ee\	vi-	.
.	.	8G\	.	.	8B\	.	.	8f/	.	.	8dd\	-si-	.
.	.	4C/	.	.	4c\	.	.	4e/	.	.	4cc\	-ta	.
!	!	!	!	!	!	!	!LO:DY:a	!	!	!	!	!	!
.	.	4r	.	.	8G/L	.	p	4r	.	.	4r	.	.
.	.	.	.	.	8A/J	.	.	.	.	.	.	.	.
=7	=7	=7	=7	=7	=7	=7	=7	=7	=7	=7	=7	=7	=7
!	!	!	!	!LO:DY:a	!	!	!	!	!	!LO:DY:a	!	!	!LO:DY:a
1ryy	1ryy	4C/	.	p	4B-X/	.	.	4g/	.	p	4ee\	im-	p
.	.	8C/	.	.	8G/	.	.	8g/	.	.	8ee\	-ple	.
.	.	8C/	.	.	8A/	.	.	8g/	.	.	8ee\	su-	.
.	.	4.C/	.	.	(4B/	.	.	4.g/	.	.	4.ee\	-per-	.
.	.	.	.	.	8A/)	.	.	.	.	.	.	.	.
.	.	8C/	.	.	8B/	.	.	8f/	.	.	8dd\	-na	.
=8	=8	=8	=8	=8	=8	=8	=8	=8	=8	=8	=8	=8	=8
1ryy	1ryy	4.C/	.	.	4.c\	.	.	4.e/	.	.	4.cc\	Gra-	.
.	.	8G\	.	.	8e\	.	.	8g/	.	.	8g/	-ti-	.
.	.	8G\	.	.	8G/	.	.	8g/	.	.	8g/	-a	.
.	.	8r	.	.	8r	.	.	8r	.	.	8r	.	.
!	!	!	!	!	!	!	!	!LO:TX:t=P:problem=wysokość poprawiana ołówkiem	!	!	!LO:TX:t=P:problem=mixed beam	!	!
.	.	8G\L	.	.	4e\	.	.	4g/	.	.	8g/L	quae	.
.	.	8A\J	.	.	.	.	.	.	.	.	8ee\J	.	.
!!LO:LB:g=original
=9	=9	=9	=9	=9	=9	=9	=9	=9	=9	=9	=9	=9	=9
1ryy	1ryy	8B-X\	.	.	8e\	.	.	8g/	.	.	8ee\	tu	.
!	!	!LO:TX:t=P:problem=nuta wpisana ołówkiem	!	!LO:DY:a	!LO:TX:t=P:problem=nuta wpisana ołówkiem	!	!LO:DY:a	!LO:TX:t=P:problem=nuta wpisana ołówkiem	!	!LO:DY:a	!LO:TX:t=P:problem=nuta wpisana ołówkiem	!	!LO:DY:a
.	.	8B-\	.	<	8e\	.	<	8g/	.	<	8ee\	quae	<
.	.	8G\	.	.	8.e\	.	.	8.g/	.	.	8.ee\	tu	.
.	.	8B-\	.	.	.	.	.	.	.	.	.	.	.
.	.	.	.	.	16e\	.	.	16g/	.	.	16ee\	cre-	.
.	.	(4Bn\	.	.	4.e\	.	.	4.g/	.	.	4.ee\	-as-	.
.	.	8A#X\)	.	.	.	.	.	.	.	.	.	.	.
.	.	8B\	.	[[	8e\	.	[[	8g/	.	[[	8ee\	-ti	[[
=10	=10	=10	=10	=10	=10	=10	=10	=10	=10	=10	=10	=10	=10
!LO:TX:color=dodgerblue:t=8/8	!	!	!	!LO:DY:a	!	!	!LO:DY:a	!	!	!LO:DY:a	!	!	!LO:DY:a
1ryy	1ryy	4.c#X^\	.	f	4.g 4.e^\	.	f	4.a^/	.	f	4.gg 4.ee^\	pec-	f
.	.	8c#\	.	.	8e\	.	.	8a/	.	.	8ee\	-to-	.
.	.	8d\	.	.	8f\	.	.	8a/	.	.	8ff\	-ra	.
.	.	8r	.	.	8r	.	.	8r	.	.	8r	.	.
!	!	!	!	!LO:DY:a	!	!	!LO:DY:a	!	!	!LO:DY:a	!	!	!
.	.	4D\	.	p	4B-X/	.	p	4g/	.	p	4cc#X\	quae	.
=11	=11	=11	=11	=11	=11	=11	=11	=11	=11	=11	=11	=11	=11
!	!LO:TX:a:t=8/8	!	!	!	!	!	!	!	!	!	!LO:TX:a:t=un poco piu lento.	!	!LO:DY:t=p.
1ryy	1ryy	8.D\	.	.	8.A/	.	.	8.f/	.	.	8.dd\	tu	p
.	.	16D\	.	.	16A/	.	.	16f/	.	.	16a/	cre-	.
!	!	!	!	!	!	!	!	!	!	!	!	!	!
.	.	8D|\	.	.	8A|/	.	.	8f|/	.	.	8a|/	-a-	.
!	!	!	!	!	!	!	!	!	!	!	!	!	!
.	.	8D|\	.	.	8A-X|/	.	.	8f|/	.	.	8cc|\	-sti	.
.	.	4.G\	.	.	4.G/	.	.	4.f/	.	.	4.b\	pec-	.
.	.	8C/	.	.	8G/	.	.	8e/	.	.	8cc\	-[to]-	.
=12	=12	=12	=12	=12	=12	=12	=12	=12	=12	=12	=12	=12	=12
1ryy	1ryy	[2C;/	.	.	[2G;/	.	.	[2e/	.	.	[2cc;\	-ra	.
.	.	8C/]	.	.	8G/]	.	.	8e/]	.	.	8cc\]	.	.
!	!	!	!	!	!	!	!	!	!	!	!LO:TX:a:t=a tempo Imo	!	!
.	.	8r	.	.	8r	.	.	8r	.	.	8r	.	.
.	.	4C/	Qui	.	4r	.	.	4r	.	.	4r	.	.
!!LO:PB:g=original
=13	=13	=13	=13	=13	=13	=13	=13	=13	=13	=13	=13	=13	=13
!	!	!	!	!	!	!	!	!	!	!	!LO:TX:a:t=[segno]	!	!
1ryy	1ryy	4C^/	di-	.	2r	.	.	1r	.	.	1r	.	.
.	.	4D^\	-ce-	.	.	.	.	.	.	.	.	.	.
.	.	4E^\	-ris	.	2c^\	.	.	.	.	.	.	.	.
.	.	4F#X^\	pa-	.	.	.	.	.	.	.	.	.	.
=14	=14	=14	=14	=14	=14	=14	=14	=14	=14	=14	=14	=14	=14
1ryy	1ryy	2.G^\	-ra-	.	4B^\	-tis-	.	2r	.	.	1r	.	.
.	.	.	.	.	8c^\	-si-	.	.	.	.	.	.	.
.	.	.	.	.	8c\	-mi	.	.	.	.	.	.	.
.	.	.	.	.	4d^\	do-	.	4r	.	.	.	.	.
.	.	4G\	-cli-	.	4e^\	-num	.	4g^/	qui	.	.	.	.
=15	=15	=15	=15	=15	=15	=15	=15	=15	=15	=15	=15	=15	=15
1ryy	1ryy	[2F\	-tus	.	2e\	[De-	.	4a^/	di-	.	2r	.	.
.	.	.	.	.	.	.	.	4b^\	-ce-	.	.	.	.
.	.	8F\]	.	.	8A/	-i]	.	4cc^\	-ris	.	8r	.	.
.	.	8r	.	.	8r	.	.	.	.	.	8a/	al-	.
.	.	4F\	pa-	.	4r	.	.	4dd^\	pa-	.	8g/	-tis-	.
.	.	.	.	.	.	.	.	.	.	.	8g/	-si-	.
=16	=16	=16	=16	=16	=16	=16	=16	=16	=16	=16	=16	=16	=16
1ryy	1ryy	4E\	-ra-	.	1r	.	.	4.dd\	-ra-	.	4g^/	-mi	.
.	.	4D/	-cli-	.	.	.	.	.	.	.	8dd^\	do-	.
!	!	!	!	!	!	!	!	!	!	!	!LO:TX:t=P:problem=nuta wpisana ołówkiem	!	!
.	.	.	.	.	.	.	.	8g/	-cli-	.	8dd\	-num	.
.	.	4C/	-tus	.	.	.	.	4g/	-tus	.	4ee^\	De-	.
.	.	4r	.	.	.	.	.	4r	.	.	8cc\	-i	.
.	.	.	.	.	.	.	.	.	.	.	8r	.	.
!!LO:LB:g=original
=17	=17	=17	=17	=17	=17	=17	=17	=17	=17	=17	=17	=17	=17
!	!	!	!	!	!	!	!	!	!	!	!	!	!LO:DY:a
1ryy	1ryy	4F\	.	f	4c\	.	f	4a/	.	f	4ff\	fons	f
.	.	8.F\	.	.	8.c\	.	.	8.a/	.	.	8.ff\	vi-	.
.	.	16F\	.	.	16c\	.	.	16a/	.	.	16ff\	-vus	.
.	.	4..F\	.	.	4..c\	.	.	4..a/	.	.	4..ff\	ig-	.
.	.	16F\	.	.	16c#X\	.	.	16a/	.	.	16ee\	-nis	.
=18	=18	=18	=18	=18	=18	=18	=18	=18	=18	=18	=18	=18	=18
1ryy	1ryy	4..F\	.	.	4..c#X\	.	.	4..a/	.	.	4..ee\	ca-	.
.	.	16F\	.	.	16d\	.	.	16a/	.	.	16dd\	-ri-	.
.	.	4F\	.	.	4d\	.	.	4a/	.	.	4dd\	-tas	.
.	.	4r	.	pp	4r	.	pp	4r	.	pp	4r	.	pp
=19	=19	=19	=19	=19	=19	=19	=19	=19	=19	=19	=19	=19	=19
!	!	!	!	!	!	!	!	!	!	!	!	!	!
1ryy	1ryy	8.B-X\	.	.	8.d\	.	.	8.b-X/	.	.	8.ff\	et	.
.	.	16B-\	.	.	16B-X\	.	.	16b-/	.	.	16dd\	spi-	.
!	!	!	!	!	!	!	!	!	!	!	!LO:TX:t=P:dot.color=dodgerblue:problem	!	!
.	.	8B-\	.	.	8B-\	.	.	8b-/	.	.	8.dd\	-ri-	.
.	.	8B-\	.	.	8d\	.	.	8b-/	.	.	.	.	.
!	!	!	!	!	!	!	!	!	!	!	!LO:TX:t=P:flag.color=dodgerblue:problem	!	!
.	.	.	.	.	.	.	.	.	.	.	16ff\	-tu-	.
.	.	4.B-\	.	.	4.c\	.	.	4.a/	.	.	4.ff\	-a-	.
.	.	8B-\	.	.	8c\	.	.	8a/	.	.	8ee-X\	-lis	.
=20	=20	=20	=20	=20	=20	=20	=20	=20	=20	=20	=20	=20	=20
1ryy	1ryy	4.B-X\	.	.	4.c\	.	.	(4.b-X/	.	.	(4.ee-X\	un-	.
.	.	8B-\	.	.	8d\	.	.	8f/)	.	.	8dd\)	cti-	.
.	.	8B-\	.	.	8d\	.	.	8f/	.	.	8dd\	-o	.
.	.	8r	.	.	8r	.	.	8r	.	.	8r	.	.
!	!	!	!	!LO:DY:a	!	!	!LO:DY:a	!	!	!LO:DY:a	!	!	!LO:DY:a
.	.	4A-X\	.	f	4c\	.	f	4f#X/	.	f	4dd\	.	f
!!LO:LB:g=original
=21	=21	=21	=21	=21	=21	=21	=21	=21	=21	=21	=21	=21	=21
*	*	*	*	*	*	*	*	*	*	*	*^	*	*
1ryy	1ryy	2G\	.	.	2B^\	.	.	2g^/	.	.	(4.gg^/	2dd\	.	.
.	.	.	.	.	.	.	.	.	.	.	8dd/)	.	.	.
.	.	4G\	.	.	4B\	.	.	4g/	.	.	4dd/	4dd\	.	.
.	.	4B\	.	.	4d\	.	.	4g/	.	.	4ffn\	4ryy	.	.
*	*	*	*	*	*	*	*	*	*	*	*v	*v	*	*
=22	=22	=22	=22	=22	=22	=22	=22	=22	=22	=22	=22	=22	=22
1ryy	1ryy	4.c\	.	.	4.c\	.	.	4.g/	.	.	4.ee\	.	.
.	.	8G\	.	.	8d\	.	.	8f/	.	.	8dd\	.	.
.	.	4G\	.	.	4e\	.	.	4e/	.	.	4cc\	.	.
.	.	8F\	.	.	8c\	.	.	8f/	.	.	8a/	.	.
.	.	16r	.	.	16r	.	.	16r	.	.	16r	.	.
.	.	16F\	.	.	16c\	.	.	16a/	.	.	16a/	.	.
=23	=23	=23	=23	=23	=23	=23	=23	=23	=23	=23	=23	=23	=23
1ryy	1ryy	8.G\	.	.	8.e\	.	.	8.g/	.	.	8.g/	.	.
.	.	16G\	.	.	16e\	.	.	16g/	.	.	16g/	.	.
.	.	8c\	.	.	8e\	.	.	8g/	.	.	8a/	.	.
.	.	8B\	.	.	8d\	.	.	8g/	.	.	8b\	.	.
.	.	(4A\	.	.	8.c\	.	.	4.g/	.	.	8.cc\	.	.
.	.	.	.	.	16B\	.	.	.	.	.	16b\	.	.
.	.	8E\)	.	.	8c\	.	.	.	.	.	8cc\	.	.
.	.	8F\	.	.	8c\	.	.	8g/	.	.	8ee\	.	.
=24	=24	=24	=24	=24	=24	=24	=24	=24	=24	=24	=24	=24	=24
1ryy	1ryy	8G\	.	.	8c\	.	.	8g/	.	.	8ee\	.	.
.	.	8r	.	.	16B\	.	.	8r	.	.	16dd\	.	.
.	.	.	.	.	16r	.	.	.	.	.	16r	.	.
!	!	!	!	!LO:HP:t=dimin.	!	!	!LO:HP:t=dimin.	!	!	!LO:HP:t=dimin.	!	!	!LO:HP:t=dimin.
.	.	2A^\	.	>	2c^\	.	>	2f^/	.	>	2ff^\	.	>
.	.	4A\	.	.	4c#X\	.	.	4g/	.	.	4ee\	.	.
!!LO:PB:g=original
=25	=25	=25	=25	=25	=25	=25	=25	=25	=25	=25	=25	=25	=25
!	!	!	!	!	!	!	!	!	!	!	!LO:TX:a:t=piu lento	!	!
1ryy	1ryy	4A\	.	p	(8c#X\L	.	p	(8a/L	.	p	8ee\L	.	p
.	.	.	.	.	8d\J)	.	.	8f#X/J)	.	.	8dd\J	.	.
.	.	8D\	.	.	8c\	.	.	8f#'/	.	.	8a'/	.	.
.	.	8D\	.	.	8G/	.	.	8f#'/	.	.	8cc'\	.	.
.	.	4.G\	.	.	4.G/	.	.	4.fn/	.	.	4.b\	.	.
.	.	8C/	.	.	8G/	.	.	8e/	.	.	8cc\	.	.
=26	=26	=26	=26	=26	=26	=26	=26	=26	=26	=26	=26	=26	=26
*>A1	*>A1	*>A1	*	*	*>A1	*	*	*>A1	*	*	*>A1	*	*
!	!	!	!	!	!	!	!	!	!	!	!LO:TX:a:t=1ma Volta.	!	!
1ryy	1ryy	[2C;/	.	.	[2G;/	.	.	[2e;/	.	.	[2cc;\	.	.
.	.	8C/]	.	.	8G/]	.	.	8e/]	.	.	8cc\]	.	.
.	.	8r	.	.	8r	.	.	8r	.	.	8r	.	.
.	.	4C^/	.	.	4r	.	.	4r	.	.	4r	.	.
=27:|!	=27:|!	=27:|!	=27:|!	=27:|!	=27:|!	=27:|!	=27:|!	=27:|!	=27:|!	=27:|!	=27:|!	=27:|!	=27:|!
*>A2	*>A2	*>A2	*	*	*>A2	*	*	*>A2	*	*	*>A2	*	*
!	!	!	!	!	!	!	!	!	!	!	!LO:TX:a:t=2da Volta	!	!
1ryy	1ryy	8C/	.	.	4G/	.	.	4e/	.	.	4cc\	.	.
.	.	8r	.	.	.	.	.	.	.	.	.	.	.
.	.	8c\	.	.	4r	.	.	4r	.	.	4r	.	.
.	.	8c\	.	.	.	.	.	.	.	.	.	.	.
.	.	4.c^\	.	.	2r	.	.	2r	.	.	2cc\	.	.
.	.	8B\	.	.	.	.	.	.	.	.	.	.	.
=28	=28	=28	=28	=28	=28	=28	=28	=28	=28	=28	=28	=28	=28
*>	*>	*>	*	*	*>	*	*	*>	*	*	*>	*	*
1ryy	1ryy	4.B^\	.	.	1r	.	.	2r	.	.	4cc\	.	.
.	.	.	.	.	.	.	.	.	.	.	8cc\	.	.
.	.	8A\	.	.	.	.	.	.	.	.	8cc\	.	.
.	.	4A^\	.	.	.	.	.	4r	.	.	4.cc^\	.	.
.	.	8G\	.	.	.	.	.	[4g^/	.	.	.	.	.
.	.	8G\	.	.	.	.	.	.	.	.	8b\	.	.
!!LO:LB:g=original
=29	=29	=29	=29	=29	=29	=29	=29	=29	=29	=29	=29	=29	=29
1ryy	1ryy	4.F\	.	.	4r	.	.	4g/]	.	.	4.b\	.	.
.	.	.	.	.	4F/	.	.	8g/	.	.	.	.	.
.	.	8C/	.	.	.	.	.	8g/	.	.	8a/	.	.
!	!	!	!	!	!	!	!	!	!	!	!	!	!
.	.	4C/	.	.	(>8F|/	.	.	4.g^/	.	.	8a/	.	.
!	!	!	!	!	!	!	!	!	!	!	!	!	!
.	.	.	.	.	8G|/	.	.	.	.	.	8r	.	.
!	!	!	!	!	!	!	!	!	!	!	!	!	!
.	.	8r	.	.	8A|/	.	.	.	.	.	4a/	.	.
!	!	!	!	!	!	!	!	!	!	!	!	!	!
.	.	8C/	.	.	8B|/)	.	.	8f/	.	.	.	.	.
=30	=30	=30	=30	=30	=30	=30	=30	=30	=30	=30	=30	=30	=30
!	!	!	!	!	!	!	!	!	!	!	!LO:TX:a:t=un poco ritenuto.	!	!
1ryy	1ryy	(>8C|/	.	.	4.c\	.	.	4f/	.	.	2.g/	.	.
!	!	!	!	!	!	!	!	!	!	!	!	!	!
.	.	8D|\	.	.	.	.	.	.	.	.	.	.	.
!	!	!	!	!	!	!	!	!	!	!	!	!	!
.	.	8E|\	.	.	.	.	.	4e/	.	.	.	.	.
!	!	!	!	!	!	!	!	!	!	!	!	!	!
.	.	8F|\)	.	.	8c\	.	.	.	.	.	.	.	.
.	.	4.G^\	.	.	4c^\	.	.	8d/	.	.	.	.	.
.	.	.	.	.	.	.	.	8r	.	.	.	.	.
.	.	.	.	.	4B\	.	.	4d/	.	.	8g/	.	.
.	.	8G\	.	.	.	.	.	.	.	.	8g/	.	.
=31	=31	=31	=31	=31	=31	=31	=31	=31	=31	=31	=31	=31	=31
!	!	!	!	!	!	!	!LO:DY:a	!	!	!LO:DY:a	!	!	!LO:DY:a
1ryy	1ryy	4C/	.	.	4.c\	.	<	4.e/	.	<	4.g/	.	<
.	.	4r	.	.	.	.	.	.	.	.	.	.	.
.	.	.	.	.	8G/	.	.	8c/	.	.	8e/	.	.
!	!	!	!	!LO:DY:a	!	!	!	!	!	!	!	!	!
.	.	4.C/	.	<	4.G/	.	.	4.e/	.	.	4.cc\	.	.
.	.	8C/	.	[[	8e\	.	[[	8e/	.	[[	8g/	.	[[
=32	=32	=32	=32	=32	=32	=32	=32	=32	=32	=32	=32	=32	=32
!	!	!	!	!LO:DY:a	!	!	!LO:DY:a	!	!	!LO:DY:a	!	!	!LO:DY:a
!	!	!	!	!LO:DY:a	!	!	!LO:DY:a	!	!	!LO:DY:a	!	!	!LO:DY:a
1ryy	1ryy	1c	.	f > ]]	1e	.	f > ]]	1g	.	f > ]]	1ee	.	f > ]]
=33	=33	=33	=33	=33	=33	=33	=33	=33	=33	=33	=33	=33	=33
!	!	!	!	!	!	!	!	!	!	!LO:DY:a	!	!	!LO:DY:a
1ryy	1ryy	1C;	.	pp	1G;	.	pp	1e;	.	pp	1cc;	.	pp
==	==	==	==	==	==	==	==	==	==	==	==	==	==
*-	*-	*-	*-	*-	*-	*-	*-	*-	*-	*-	*-	*-	*-
!!!system-decoration: [(s1,s2,s3,s4)][{(s5,s6)}]
!!!RDF**kern: > = above
!!!RDF**kern: < = below
!!!RDF**kern: | = vertical stroke
!!!ENC: Kamil Watkowski
!!!END: 2021-08-04
